X: 10151
M: C|
L: 1/8
K: C
Q: "Introduction, Moderato."
[|\
c2e2 g3f | edcB AGFE | D2d2 f3e | dcBA GFED |
g6 c2 | (B2c2) (f2e2) | d6 G2 | c3c (c2d2) | e4 g4 | ^f4 =f4 | e4- eceg | c'4 (bc')d'c' |
b2.a2 z2((3fga) | g4- gfef | e4- eceg | c'4 (bc')d'c' | b2.a2 z2(cd) |
e3{g}f (ed)cd | c6 z2 || "^Coda"[GG,]z [EG,]z [c4E4G,4] | E2 (E/D/C/D/) CCEG |
EGc2- c(B/c/ d/c/B/c/) | dGf2- f(g/f/ e/d/c/B/) | A3G AB{d}cA |
dGf2- f(g/f/ e/d/c/B/) | A3G AB{d}cA | [G2G,2]z [B2D2G,2]z "^Fine"[c4E4G,4] "_De Capo." !segno!|]


